!! 00000] TT[WS
!!!OTL: Ku wugeng
!!!ARE: Asia, China, Shanxi Zuoquan
!! Ethnic Group: Han
!! WII, 159 (2)
!!!SCT: J0641
!!!YEM: Copyright 1995, estate of Helmut Schaffrath.
**kern
*ICvox
*Ivox
*M2/4
*k[f#c#g#]
*A:
{8.ee
16ff#
8ee
8a
=1
4.b
8cc#
=2
8.ee
16ff#
8ee
8a
=3
2b}
=4
{4b
4ee
=5
4b
4ee
=6
8ee
8ff#
8ee
8a
=7
2b}
=8
{4b
4ee
=9
4b
4ee
=10
4b
4ee
=11
8b
8cc#
8b
8a
=12
4.a
8b
=13
4a
4r}
=14
{4f#
8f#
8a
=15
4.b
8cc#
=16
4.a
8cc#
=17
8b
8a
8g#
8f#
=18
4.e
8a
=19
8f#
8e
8d
8B
=20
2e}
==
!!!AGN: Xiaodiao. Qingge, Aisu
!!!ONB: ESAC (Essen Associative Code) Database: CHINA
!!!AMT: simple duple
!!!AIN: vox
!!!EED: Helmut Schaffrath
!!!EEV: 1.0
*-
